X:8831
T:La Belle Catherinette
M:4/4
K:D
FAdf edd2|FAdfe2(3ded|cdef gfga|ba^ga fada|FAdf edd2|FAdfe2(3ded|cdef gfga|1bgecd2d2:||2bgecd2de||faaa abag|fafab2aa|aa^ga c'ba^g|ba^ga fad2|faaa abag|fafab2aa|aa^ga c'ba^g|1bagcd2de:||2bagcd4||


